src/pos-icons/tooltip-edit-outline.svg

<svg height="24" viewBox="0 0 24 24" width="24" xmlns="http://www.w3.org/2000/svg"><path d="m4 2h16c1.11 0 2 .9 2 2v12c0 1.11-.89 2-2 2h-4l-4 4-4-4h-4c-1.1 0-2-.89-2-2v-12c0-1.1.9-2 2-2m0 2v12h4.83l3.17 3.17 3.17-3.17h4.83v-12zm11.84 4.2-1.01 1.01-2.07-2.03 1.01-1.02c.2-.21.54-.22.78 0l1.29 1.25c.21.21.22.55 0 .79m-7.84 3.71 4.17-4.19 2.07 2.08-4.16 4.2h-2.08z"/></svg>

<?xml version="1.0" encoding="UTF-8"?><!DOCTYPE svg PUBLIC "-//W3C//DTD SVG 1.1//EN" "http://www.w3.org/Graphics/SVG/1.1/DTD/svg11.dtd"><svg xmlns="http://www.w3.org/2000/svg" xmlns:xlink="http://www.w3.org/1999/xlink" version="1.1" id="mdi-tooltip-edit-outline" width="24" height="24" viewBox="0 0 24 24"><path d="M4 2H20C21.11 2 22 2.9 22 4V16C22 17.11 21.11 18 20 18H16L12 22L8 18H4C2.9 18 2 17.11 2 16V4C2 2.9 2.9 2 4 2M4 4V16H8.83L12 19.17L15.17 16H20V4H4M15.84 8.2L14.83 9.21L12.76 7.18L13.77 6.16C13.97 5.95 14.31 5.94 14.55 6.16L15.84 7.41C16.05 7.62 16.06 7.96 15.84 8.2M8 11.91L12.17 7.72L14.24 9.8L10.08 14H8V11.91Z" /></svg>
